shared/img/esbuild.svg

<?xml version="1.0" encoding="UTF-8"?>
<svg width="164px" height="164px" viewBox="0 0 164 164" version="1.1" xmlns="http://www.w3.org/2000/svg" xmlns:xlink="http://www.w3.org/1999/xlink">
    <title>ESbuild</title>
    <defs>
        <linearGradient x1="50%" y1="0%" x2="50%" y2="100%" id="linearGradient-1">
            <stop stop-color="#DEF6FF" offset="0%"></stop>
            <stop stop-color="#8CD8FF" offset="100%"></stop>
        </linearGradient>
        <linearGradient x1="50%" y1="0%" x2="50%" y2="100%" id="linearGradient-2">
            <stop stop-color="#4FB3FF" offset="0%"></stop>
            <stop stop-color="#2A83F9" offset="100%"></stop>
        </linearGradient>
        <path d="M82.5,22.2998427 L133.461524,51.7224924 C133.770925,51.9011252 133.961524,52.2312523 133.961524,52.5885178 L133.961524,111.433817 C133.961524,111.791083 133.770925,112.12121 133.461524,112.299843 L82.5,141.722492 C82.1905989,141.901125 81.8094011,141.901125 81.5,141.722492 L30.5384758,112.299843 C30.2290747,112.12121 30.0384758,111.791083 30.0384758,111.433817 L30.0384758,52.5885178 C30.0384758,52.2312523 30.2290747,51.9011252 30.5384758,51.7224924 L81.5,22.2998427 C81.8094011,22.1212099 82.1905989,22.1212099 82.5,22.2998427 Z" id="path-3"></path>
        <linearGradient x1="50%" y1="0%" x2="50%" y2="100%" id="linearGradient-4">
            <stop stop-color="#FFC700" offset="0%"></stop>
            <stop stop-color="#FF9600" offset="100%"></stop>
        </linearGradient>
    </defs>
    <g id="ESbuild" stroke="none" stroke-width="1" fill="none" fill-rule="evenodd">
        <g id="Group">
            <g id="Polygon" transform="translate(82.000000, 82.011168) rotate(-210.000000) translate(-82.000000, -82.011168) ">
                <use stroke="#FFFFFF" stroke-width="18" fill="url(#linearGradient-1)" fill-rule="evenodd" xlink:href="#path-3"></use>
                <use stroke="url(#linearGradient-2)" stroke-width="10" xlink:href="#path-3"></use>
            </g>
            <path d="M91.090898,4.19025709 C92.0788464,3.92211961 93.1690857,4.03087173 94.127447,4.58006893 C94.8090191,4.97064975 95.3447093,5.54264544 95.6912809,6.21248946 C96.0378525,6.88233348 96.1953055,7.65002584 96.1204,8.43203519 L96.1204,8.43203519 L90.5083787,67.0103206 L122.274381,67.0111676 C123.102808,67.0111676 123.852808,67.346954 124.395701,67.8898472 C124.938594,68.4327404 125.274381,69.1827404 125.274381,70.0111676 C125.274381,70.5344973 125.137482,71.0487235 124.87728,71.5027818 L124.87728,71.5027818 L75.331905,157.960552 C74.7827078,158.918913 73.8970504,159.563941 72.909102,159.832078 C71.9211536,160.100216 70.8309143,159.991463 69.872553,159.442266 C69.1909809,159.051685 68.6552907,158.47969 68.3087191,157.809846 C67.9621475,157.140002 67.8046945,156.372309 67.879594,155.590363 L67.879594,155.590363 L73.4899186,97.0103206 L41.7256194,97.0111676 C40.8971923,97.0111676 40.1471923,96.6753811 39.6042991,96.1324879 C39.0614058,95.5895947 38.7256194,94.8395947 38.7256194,94.0111676 C38.7256194,93.4878378 38.8625176,92.9736116 39.1227197,92.5195533 L39.1227197,92.5195533 L88.668095,6.06178287 C89.2172922,5.10342166 90.1029496,4.45839458 91.090898,4.19025709 Z" id="Combined-Shape" stroke="#FFFFFF" stroke-width="4" fill="url(#linearGradient-4)"></path>
            <polygon id="Star" stroke="#FFFFFF" stroke-width="18" transform="translate(82.000000, 82.011168) rotate(-90.000000) translate(-82.000000, -82.011168) " points="82 82.0111676 40.4307806 106.011168 82 82.0111676 82 34.0111676 82 82.0111676 123.569219 106.011168"></polygon>
            <polygon id="Star" stroke="url(#linearGradient-2)" stroke-width="10" transform="translate(82.000000, 82.011168) rotate(-210.000000) translate(-82.000000, -82.011168) " points="82 82.0111676 34.3686028 109.511168 82 82.0111676 82 27.0111676 82 82.0111676 129.631397 109.511168"></polygon>
        </g>
    </g>
</svg>

<svg width="164" height="164" xmlns="http://www.w3.org/2000/svg" xmlns:xlink="http://www.w3.org/1999/xlink"><defs><linearGradient x1="50%" y1="0%" x2="50%" y2="100%" id="a"><stop stop-color="#DEF6FF" offset="0%"/><stop stop-color="#8CD8FF" offset="100%"/></linearGradient><linearGradient x1="50%" y1="0%" x2="50%" y2="100%" id="c"><stop stop-color="#4FB3FF" offset="0%"/><stop stop-color="#2A83F9" offset="100%"/></linearGradient><linearGradient x1="50%" y1="0%" x2="50%" y2="100%" id="d"><stop stop-color="#FFC700" offset="0%"/><stop stop-color="#FF9600" offset="100%"/></linearGradient><path d="M82.5 22.3l50.962 29.422a1 1 0 01.5.867v58.845a1 1 0 01-.5.866L82.5 141.722a1 1 0 01-1 0L30.538 112.3a1 1 0 01-.5-.866V52.589a1 1 0 01.5-.867L81.5 22.3a1 1 0 011 0z" id="b"/></defs><g fill="none" fill-rule="evenodd"><g transform="rotate(150 82 82.011)"><use stroke="#FFF" stroke-width="18" fill="url(#a)" xlink:href="#b"/><use stroke="url(#c)" stroke-width="10" xlink:href="#b"/></g><path d="M91.09 4.19a3.996 3.996 0 015.03 4.242h0L90.508 67.01l31.766.001a2.99 2.99 0 012.122.879 3 3 0 01.482 3.613h0L75.331 157.96a3.987 3.987 0 01-2.423 1.871 3.996 3.996 0 01-5.03-4.242h0l5.61-58.58-31.763.001a2.99 2.99 0 01-2.122-.879 3 3 0 01-.482-3.613h0L88.669 6.063a3.987 3.987 0 012.423-1.872z" stroke="#FFF" stroke-width="4" fill="url(#d)"/><path stroke="#FFF" stroke-width="18" d="M82 82.011l24 41.57-24-41.57H34h48l24-41.57z"/><path stroke="url(#c)" stroke-width="10" transform="rotate(150 82 82.011)" d="M82 82.011l-47.631 27.5L82 82.011v-55 55l47.631 27.5z"/></g></svg>
